build/img/icon-twitter.svg

<svg width="24" height="18" viewBox="0 0 24 18" xmlns="http://www.w3.org/2000/svg">
<path d="M23.0768 2.1309C22.2529 2.49228 21.3751 2.73182 20.4599 2.84812C21.4014 2.28597 22.12 1.4026 22.4578 0.337842C21.58 0.861221 20.6108 1.23091 19.5779 1.43722C18.7443 0.549686 17.5564 0 16.2604 0C13.7459 0 11.7217 2.0409 11.7217 4.54287C11.7217 4.90287 11.7521 5.24902 11.8269 5.57855C8.05108 5.3944 4.71004 3.58473 2.4656 0.827991C2.07376 1.50783 1.84392 2.28597 1.84392 3.12366C1.84392 4.69656 2.65391 6.09086 3.86128 6.89808C3.13159 6.88423 2.41576 6.67239 1.8093 6.3387C1.8093 6.35255 1.8093 6.37055 1.8093 6.38855C1.8093 8.5956 3.38359 10.4288 5.44803 10.8511C5.07834 10.9522 4.67542 11.0006 4.25727 11.0006C3.96651 11.0006 3.67297 10.984 3.39744 10.9231C3.98589 12.7217 5.65572 14.044 7.64124 14.0869C6.09602 15.2957 4.13405 16.024 2.01007 16.024C1.63761 16.024 1.28038 16.0074 0.923157 15.9617C2.93498 17.259 5.31926 17.9998 7.89047 17.9998C16.2479 17.9998 20.8171 11.0768 20.8171 5.07594C20.8171 4.87518 20.8102 4.68133 20.8005 4.48887C21.7019 3.84919 22.4592 3.05027 23.0768 2.1309Z"/>
</svg>

<svg width="24" height="18" xmlns="http://www.w3.org/2000/svg"><path d="M23.077 2.13a9.47 9.47 0 01-2.617.718 4.516 4.516 0 001.998-2.51 9.076 9.076 0 01-2.88 1.1 4.54 4.54 0 00-7.856 3.106c0 .359.03.705.105 1.035C8.05 5.394 4.71 3.585 2.466.828a4.573 4.573 0 00-.622 2.296c0 1.573.81 2.967 2.017 3.774a4.485 4.485 0 01-2.052-.56v.05a4.563 4.563 0 003.639 4.463c-.37.101-.773.15-1.19.15-.291 0-.585-.017-.86-.078.588 1.799 2.258 3.121 4.243 3.164a9.125 9.125 0 01-5.63 1.937c-.373 0-.73-.017-1.088-.062A12.787 12.787 0 007.89 18c8.358 0 12.927-6.923 12.927-12.924 0-.2-.007-.395-.017-.587a9.061 9.061 0 002.277-2.358z"/></svg>
